X:1
T:The Summer Land
T:The Summer Land
T:Robert Crosbie
T:Robert Crosbie, 1908
T:Public Domain Courtesy of the Cyber Hymnal™
T:Public Domain Courtesy of the Cyber Hymnal™
C:Robert Crosbie
Z:Public Domain
Z:Courtesy of the Cyber Hymnal™
%%score ( 1 2 ) ( 3 4 )
L:1/8
Q:1/4=93
M:4/4
K:G
V:1 treble 
V:2 treble 
V:3 bass 
V:4 bass 
V:1
 G[GA] | [GB][GB][GB][GB] [GB][Gd][B,G][CA] | [DB][GB][Gd][Ac] [GB]2 [GB][Fc] | %3
w: 1.~To that|sum- mer land up yon- der Where the|an- gels ev- er sing Hal- le-|
w: 2.~To that|sum- mer land up yon- der Some are|go- ing ev- ery day, And the|
w: 3.~In that|sum- mer land up yon- der There’s a|place pre- pared for all Who are|
 [Gd][Gd][Gd][Gd] [Gd][GB][DG][GB] | [FA][FA] [GA]>[FA] [FA]2 G[FA] | %5
w: lu- jahs to the Sav- ior, Sweet ho-|san- nahs to the King; We are|
w: time is draw- ing near- er When we,|too, shall go a- way; We are|
w: trust- ing in the Sav- ior, Who will|list- en to His call; And the|
 [GB][GB][GB][GB] [GB][Gd]G[DA] | [GB][GB][Gd][Fc] [GB]2 [GB][Fc] | %7
w: march- ing swift- ly on- ward, Guid- ed|by a Fa- ther’s hand, Thro’ this|
w: go- ing straight to Je- sus, There to|join the ran- somed band, We will|
w: hap- py time is com- ing When the|Lord shall give com- mand, And we’ll|
 [Gd][Gd][Gd][Ge] [Gd][GB][EG][EA] | [GB]>[GB] [GB][FA] [DG]2 || %9
w: world of sin and sor- row To that|hap- py sum- mer land.|
w: praise His name for ev- er In that|hap- py sum- mer land.|
w: leave this world for ev- er For that|hap- py sum- mer land.|
"^Refrain" [Gd]3 [Gd] [GB][Gd][GB]G | [Gc]8 | [Gd]3 [Gd] [GB]G[GB][Gd] | [FA]8 | %13
w: ||||
w: Oh, the joy when we get|there,|Gold- en crowns of life to|wear,|
w: ||||
 [Gd]3 [Gd] [Gd][Gd][GB]G | [Ge]6 G[GA] | [GB] [GB]3 [Gd]2 [GB]2 | [FA]4 [DG]4 |] %17
w: ||||
w: In that hap- py land so|fair, In that|sum- mer land up|yon- der.|
w: ||||
V:2
 G x | x8 | x8 | x8 | x6 G x | x6 G x | x8 | x8 | x6 || x7 G | x8 | x5 G x2 | x8 | x7 G | x6 G x | %15
 x8 | x8 |] %17
V:3
 [G,B,][G,C] | [G,D][G,D][G,D][G,D] [G,D][G,B,]G,[F,G,] | G,G,[D,B,][D,D] [G,D]2 [G,D][A,D] | %3
w: ~ ~|~ ~ ~ ~ ~ ~ ~ ~|~ ~ ~ ~ ~ ~ ~|
 [B,D][B,D][B,D]C [G,B,][G,D][G,D][G,D] | [D,D][D,D] [A,,^C]>[A,,C] [D,D]2 [D,B,][D,C] | %5
w: ~ ~ ~ ~ ~ ~ ~ ~|~ ~ ~ ~ ~ ~ ~|
 [G,D][G,D][G,D][G,D] [G,D][G,B,][G,B,][F,C] | [G,D][G,D][B,D][A,C] [G,D]2 [G,D][A,D] | %7
w: ~ ~ ~ ~ ~ ~ ~ ~|~ ~ ~ ~ ~ ~ ~|
 [B,D][B,D][B,D]C [G,B,][G,D][C,C][C,A,] | [D,D]>[D,D] [D,D][D,C] [G,B,]2 || %9
w: ~ ~ ~ ~ ~ ~ ~ ~|~ ~ ~ ~ ~|
 [G,B,][G,B,][G,B,][G,B,] [G,D][G,B,][G,D][G,B,] | [C,E]2 [C,E][E,E] [G,E] [CE]3 | %11
w: Oh, the joy, the joy, when we get|there, when we get there,|
 [G,B,][G,B,][G,B,][G,B,] [G,D][G,B,][G,D][B,,D] | [D,D][D,D][F,D][A,D] D3 A, | %13
w: Gold- en, gold- en crowns of life to|wear, of life to wear; Yes,|
 [G,B,][G,B,][G,B,][G,B,] [G,B,][G,B,][G,D][G,B,] | C2 C2 C2 [CE][CE] | D D3 [D,B,]2 [D,D]2 | %16
w: o- ver in that hap- py land so|fair, that land so far,|In that sum- mer|
 [D,C]4 [G,B,]4 |] %17
w: land up|
V:4
 x2 | x6 G, x | G,G, x6 | x3 C x4 | x8 | x8 | x8 | x3 C x4 | x6 || x8 | x8 | x8 | x4 DCB, x | x8 | %14
 C2 C2 C2 x2 | D D3 x4 | x8 |] %17

